X:1
T:Title
%%score { 1 | 2 }
L:1/8
Q:1/4=100
M:4/4
K:G
V:1 treble nm="Grand Piano"
V:2 treble 
V:1
 B3 A G2 A2 | B3 [FA] B d3 | e3 d d2 e2 | d3 B [FA]2 z2 | B3 A G2 A2 | B3 [FA] [GB] [Gd]3 | %6
w: P.~P.~van~Arsdale * * *||||||
 [Ge]3 [Ge] [Gd]2 [GB]2 | [FA]3 [FB] [B,G]4 | [Ec]3 [Ec] [Ec]2 [=Fd]2 | [Ge]3 [=Fd] [Ec]2 [Ge]2 | %10
w: ||||
 d3 e d2 B2 | [GB]2 [FA][EG] [FA]2 z2 | B3 A G2 A2 | B3 [FA] [GB] [Gd]3 | [Ge]3 [Ge] [Gd]2 [GB]2 | %15
w: |||||
[M:8/4] [FA]3 [FB] [B,G]4 z8 |] %16
w: |
V:2
 [G,D]3 [G,CD] [G,B,D]2 [G,CD]2 | [G,DG]3 [D,D] [G,DG] [G,B,G]3 | %2
 [G,CG]3 [G,B,G] [G,B,G]2 [G,CG]2 | [G,B,G]3 [G,DG][K:bass] [D,D]2 z2 | %4
 [G,D]3 [G,CD] [G,B,D]2 [G,CD]2 | [G,DG]3[K:bass] [D,D] [G,D] [G,B,]3 | %6
 [C,G,]3 [C,C] [D,B,]2 [D,B,D]2 | [D,C]3 [D,D] [G,,G,]4 | [C,C]3 [C,C] [C,C]2 [C,C]2 | %9
 [C,C]3 [C,C] [C,C]2 [C,C]2 | [G,B,G]3 [G,CG] [G,B,G]2 [G,DG]2 | [D,D]2 [D,D]2 [D,D]2 z2 | %12
 [G,D]3 [G,CD] [G,B,D]2 [G,CD]2 | [G,DG]3[K:bass] [D,D] [G,D] [G,B,]3 | %14
 [C,G,]3 [C,C] [D,B,]2 [D,B,D]2 |[M:8/4] [D,C]3 [D,D] [G,,G,]4 z8 |] %16

